svgs/light/lasso.svg

<svg xmlns="http://www.w3.org/2000/svg" viewBox="0 0 576 512"><!--! Font Awesome Pro 6.5.1 by @fontawesome - https://fontawesome.com License - https://fontawesome.com/license (Commercial License) Copyright 2023 Fonticons, Inc. --><path d="M576 176c0 97.2-128.9 176-288 176c-22.9 0-45.3-1.6-66.7-4.7c11.9 17.2 18.7 38 18.7 59.7c0 58-47 105-105 105H48c-8.8 0-16-7.2-16-16s7.2-16 16-16h87c40.3 0 73-32.7 73-73c0-27.6-15.6-52.9-40.4-65.3l-34.9-17.4C52.9 293 0 238.3 0 176C0 78.8 128.9 0 288 0S576 78.8 576 176zM288 320c141.4 0 256-64.5 256-144S429.4 32 288 32S32 96.5 32 176s114.6 144 256 144z"/></svg>

<svg xmlns="http://www.w3.org/2000/svg" viewBox="0 0 576 512"><!--! Font Awesome Pro 6.1.1 by @fontawesome - https://fontawesome.com License - https://fontawesome.com/license (Commercial License) Copyright 2022 Fonticons, Inc. --><path d="M576 176C576 273.2 447.1 352 288 352C265.1 352 242.7 350.4 221.3 347.3C233.3 364.5 240 385.2 240 407C240 464.1 192.1 512 135 512H48C39.16 512 32 504.8 32 496C32 487.2 39.16 480 48 480H135C175.3 480 208 447.3 208 407C208 379.4 192.4 354.1 167.6 341.7L132.8 324.3C52.91 292.1 0 238.3 0 176C0 78.8 128.9 0 288 0C447.1 0 576 78.8 576 176V176zM288 320C429.4 320 544 255.5 544 176C544 96.47 429.4 32 288 32C146.6 32 32 96.47 32 176C32 255.5 146.6 320 288 320z"/></svg>
